Obsidian/actions/22s/snap-extension.svg

<svg height="22" viewBox="0 0 22 22" width="22" xmlns="http://www.w3.org/2000/svg"><path d="m3 1v4h-2v5h2v5h1v-5h2v-5h-2v-4zm6 4v5h5v-2h2v-1h-2v-2zm-2 2v1h1v-1z" fill="#bebebe" transform="translate(3 3)"/></svg>

<svg xmlns="http://www.w3.org/2000/svg" width="22" height="22" viewBox="0 0 22 22">
 <defs>
  <style id="current-color-scheme" type="text/css">
   .ColorScheme-Text { color:#bebebe; } .ColorScheme-Highlight { color:#4285f4; }
  </style>
 </defs>
 <path style="fill:currentColor" class="ColorScheme-Text" d="M 3 1 L 3 5 L 1 5 L 1 10 L 3 10 L 3 15 L 4 15 L 4 10 L 6 10 L 6 5 L 4 5 L 4 1 L 3 1 z M 9 5 L 9 10 L 14 10 L 14 8 L 16 8 L 16 7 L 14 7 L 14 5 L 9 5 z M 7 7 L 7 8 L 8 8 L 8 7 L 7 7 z" transform="translate(3 3)"/>
</svg>
